_includes/svg/404-page.svg

<?xml version="1.0" encoding="UTF-8"?><svg xmlns="http://www.w3.org/2000/svg" viewBox="0 0 396.83 207.58"><defs><style>.b,.c,.d{mix-blend-mode:multiply;}.b,.e{fill:#f0f;}.f,.d{fill:aqua;}.g{isolation:isolate;}.c{opacity:.8;}</style></defs><g class="g"><g id="a"><g><g><g class="c"><polygon class="e" points="70.29 128.18 44.71 128.18 42.37 133.72 67.96 133.72 70.29 128.18"/><polygon class="e" points="90.05 148.02 61.92 148.02 66.09 138.14 40.5 138.14 36.32 148.02 36.32 173.36 90.05 173.36 90.05 205.55 117.43 205.55 117.43 173.36 130.61 173.36 130.61 148.02 117.43 148.02 117.43 138.14 90.05 138.14 90.05 148.02"/><rect class="e" x="90.05" y="128.18" width="27.37" height="5.53"/><rect class="e" x="153.67" y="128.18" width="27.88" height="5.53"/><rect class="e" x="210.45" y="128.18" width="27.88" height="5.53"/><path class="e" d="M210.45,164.75c0,12.67-5.58,17.49-14.45,17.49s-14.45-4.82-14.45-17.49v-26.6h-27.88v24.83c0,28.39,14.95,44.61,42.33,44.61s42.33-16.22,42.33-44.61v-24.83h-27.88v26.6Z"/><rect class="e" x="316.14" y="128.18" width="27.37" height="5.53"/><path class="e" d="M91.96,138.14h27.37v-4.43h-27.37v4.43Zm63.62,0h27.88v-4.43h-27.88v4.43Zm-113.18,0h25.59l1.87-4.43h-25.59l-1.87,4.43Zm275.64-4.43v4.43h27.37v-4.43h-27.37Zm-49.56,4.43h25.59l1.87-4.43h-25.59l-1.87,4.43Zm-56.13,0h27.88v-4.43h-27.88v4.43Z"/><polygon class="e" points="316.14 148.02 288 148.02 292.17 138.14 266.58 138.14 262.41 148.02 262.41 173.36 316.14 173.36 316.14 205.55 343.51 205.55 343.51 173.36 356.69 173.36 356.69 148.02 343.51 148.02 343.51 138.14 316.14 138.14 316.14 148.02"/><polygon class="e" points="270.79 128.18 268.45 133.72 294.04 133.72 296.38 128.18 270.79 128.18"/><path class="e" d="M41.45,128.18h25.58l8.64-20.48h-25.57l-8.66,20.48Zm45.34,0h27.37v-20.48h-27.37v20.48Zm63.62,0h27.88v-20.48h-27.88v20.48Zm162.47-20.48v20.48h27.37v-20.48h-27.37Zm-45.34,20.48h25.58l8.64-20.48h-25.57l-8.66,20.48Zm-60.35,0h27.88v-20.48h-27.88v20.48Z"/><g><polygon class="e" points="117.43 28.13 87.01 28.13 79.52 45.86 117.43 45.86 117.43 28.13"/><polygon class="e" points="76.01 45.86 70.02 60.02 113.92 60.02 113.92 45.86 76.01 45.86"/><polygon class="e" points="53.37 107.71 78.93 107.71 90.05 81.36 90.05 107.71 117.43 107.71 117.43 60.02 73.53 60.02 53.37 107.71"/><path class="e" d="M155.39,45.86c-2.12,4.12-3.6,8.86-4.43,14.16h28.38c2.13-6.07,6.78-8.57,13.14-8.57s11.01,2.5,13.14,8.57h28.38c-.83-5.3-2.31-10.03-4.43-14.16h-74.19Z"/><path class="e" d="M153.67,70.71v36.99h27.88v-38.77c0-3.59,.46-6.53,1.3-8.92h-28.38c-.53,3.34-.8,6.91-.8,10.7Z"/><path class="e" d="M210.45,68.94v38.77h27.88v-36.99c0-3.79-.27-7.35-.8-10.7h-28.38c.84,2.4,1.3,5.33,1.3,8.92Z"/><path class="e" d="M196,26.1c-17.94,0-30.54,6.97-37.1,19.75h74.19c-6.56-12.79-19.16-19.75-37.1-19.75Z"/><polygon class="e" points="279.45 107.71 305.02 107.71 316.14 81.36 316.14 107.71 343.51 107.71 343.51 60.02 299.62 60.02 279.45 107.71"/><polygon class="e" points="302.09 45.86 296.11 60.02 340 60.02 340 45.86 302.09 45.86"/><polygon class="e" points="343.51 28.13 313.1 28.13 305.6 45.86 343.51 45.86 343.51 28.13"/></g></g><g class="c"><polygon class="f" points="62.63 128.18 37.05 128.18 34.71 133.72 60.3 133.72 62.63 128.18"/><polygon class="f" points="82.39 148.02 54.26 148.02 58.43 138.14 32.84 138.14 28.66 148.02 28.66 173.36 82.39 173.36 82.39 205.55 109.77 205.55 109.77 173.36 122.95 173.36 122.95 148.02 109.77 148.02 109.77 138.14 82.39 138.14 82.39 148.02"/><rect class="f" x="82.39" y="128.18" width="27.37" height="5.53"/><rect class="f" x="146.01" y="128.18" width="27.88" height="5.53"/><rect class="f" x="202.79" y="128.18" width="27.88" height="5.53"/><path class="f" d="M202.79,164.75c0,12.67-5.58,17.49-14.45,17.49s-14.45-4.82-14.45-17.49v-26.6h-27.88v24.83c0,28.39,14.95,44.61,42.33,44.61s42.33-16.22,42.33-44.61v-24.83h-27.88v26.6Z"/><rect class="f" x="308.48" y="128.18" width="27.37" height="5.53"/><path class="f" d="M84.3,138.14h27.37v-4.43h-27.37v4.43Zm63.62,0h27.88v-4.43h-27.88v4.43Zm-113.18,0h25.59l1.87-4.43h-25.59l-1.87,4.43Zm275.64-4.43v4.43h27.37v-4.43h-27.37Zm-49.56,4.43h25.59l1.87-4.43h-25.59l-1.87,4.43Zm-56.13,0h27.88v-4.43h-27.88v4.43Z"/><polygon class="f" points="308.48 148.02 280.34 148.02 284.51 138.14 258.92 138.14 254.75 148.02 254.75 173.36 308.48 173.36 308.48 205.55 335.85 205.55 335.85 173.36 349.03 173.36 349.03 148.02 335.85 148.02 335.85 138.14 308.48 138.14 308.48 148.02"/><polygon class="f" points="263.13 128.18 260.79 133.72 286.38 133.72 288.72 128.18 263.13 128.18"/><path class="f" d="M33.79,128.18h25.58l8.64-20.48h-25.57l-8.66,20.48Zm45.34,0h27.37v-20.48h-27.37v20.48Zm63.62,0h27.88v-20.48h-27.88v20.48Zm162.47-20.48v20.48h27.37v-20.48h-27.37Zm-45.34,20.48h25.58l8.64-20.48h-25.57l-8.66,20.48Zm-60.35,0h27.88v-20.48h-27.88v20.48Z"/><g><polygon class="f" points="109.77 28.13 79.35 28.13 71.86 45.86 109.77 45.86 109.77 28.13"/><polygon class="f" points="68.35 45.86 62.36 60.02 106.26 60.02 106.26 45.86 68.35 45.86"/><polygon class="f" points="45.71 107.71 71.27 107.71 82.39 81.36 82.39 107.71 109.77 107.71 109.77 60.02 65.87 60.02 45.71 107.71"/><path class="f" d="M147.73,45.86c-2.12,4.12-3.6,8.86-4.43,14.16h28.38c2.13-6.07,6.78-8.57,13.14-8.57s11.01,2.5,13.14,8.57h28.38c-.83-5.3-2.31-10.03-4.43-14.16h-74.19Z"/><path class="f" d="M146.01,70.71v36.99h27.88v-38.77c0-3.59,.46-6.53,1.3-8.92h-28.38c-.53,3.34-.8,6.91-.8,10.7Z"/><path class="f" d="M202.79,68.94v38.77h27.88v-36.99c0-3.79-.27-7.35-.8-10.7h-28.38c.84,2.4,1.3,5.33,1.3,8.92Z"/><path class="f" d="M188.34,26.1c-17.94,0-30.54,6.97-37.1,19.75h74.19c-6.56-12.79-19.16-19.75-37.1-19.75Z"/><polygon class="f" points="271.79 107.71 297.36 107.71 308.48 81.36 308.48 107.71 335.85 107.71 335.85 60.02 291.96 60.02 271.79 107.71"/><polygon class="f" points="294.43 45.86 288.45 60.02 332.34 60.02 332.34 45.86 294.43 45.86"/><polygon class="f" points="335.85 28.13 305.44 28.13 297.94 45.86 335.85 45.86 335.85 28.13"/></g></g><g class="c"><polygon points="68.1 128.18 42.52 128.18 40.18 133.72 65.77 133.72 68.1 128.18"/><polygon points="87.86 148.02 59.73 148.02 63.9 138.14 38.31 138.14 34.13 148.02 34.13 173.36 87.86 173.36 87.86 205.55 115.24 205.55 115.24 173.36 128.42 173.36 128.42 148.02 115.24 148.02 115.24 138.14 87.86 138.14 87.86 148.02"/><rect x="87.86" y="128.18" width="27.37" height="5.53"/><rect x="151.48" y="128.18" width="27.88" height="5.53"/><rect x="208.26" y="128.18" width="27.88" height="5.53"/><path d="M208.26,164.75c0,12.67-5.58,17.49-14.45,17.49s-14.45-4.82-14.45-17.49v-26.6h-27.88v24.83c0,28.39,14.95,44.61,42.33,44.61s42.33-16.22,42.33-44.61v-24.83h-27.88v26.6Z"/><rect x="313.95" y="128.18" width="27.37" height="5.53"/><path d="M89.77,138.14h27.37v-4.43h-27.37v4.43Zm63.62,0h27.88v-4.43h-27.88v4.43Zm-113.18,0h25.59l1.87-4.43h-25.59l-1.87,4.43Zm275.64-4.43v4.43h27.37v-4.43h-27.37Zm-49.56,4.43h25.59l1.87-4.43h-25.59l-1.87,4.43Zm-56.13,0h27.88v-4.43h-27.88v4.43Z"/><polygon points="313.95 148.02 285.82 148.02 289.98 138.14 264.39 138.14 260.22 148.02 260.22 173.36 313.95 173.36 313.95 205.55 341.32 205.55 341.32 173.36 354.5 173.36 354.5 148.02 341.32 148.02 341.32 138.14 313.95 138.14 313.95 148.02"/><polygon points="268.6 128.18 266.26 133.72 291.85 133.72 294.19 128.18 268.6 128.18"/><path d="M38.94,129.35h25.58l8.64-20.48h-25.57l-8.66,20.48Zm45.34,0h27.37v-20.48h-27.37v20.48Zm63.62,0h27.88v-20.48h-27.88v20.48Zm162.47-20.48v20.48h27.37v-20.48h-27.37Zm-45.34,20.48h25.58l8.64-20.48h-25.57l-8.66,20.48Zm-60.35,0h27.88v-20.48h-27.88v20.48Z"/><g><polygon points="115.24 28.13 84.82 28.13 77.33 45.86 115.24 45.86 115.24 28.13"/><polygon points="73.82 45.86 67.83 60.02 111.73 60.02 111.73 45.86 73.82 45.86"/><polygon points="51.18 107.71 76.74 107.71 87.86 81.36 87.86 107.71 115.24 107.71 115.24 60.02 71.34 60.02 51.18 107.71"/><path d="M153.2,45.86c-2.12,4.12-3.6,8.86-4.43,14.16h28.38c2.13-6.07,6.78-8.57,13.14-8.57s11.01,2.5,13.14,8.57h28.38c-.83-5.3-2.31-10.03-4.43-14.16h-74.19Z"/><path d="M151.48,70.71v36.99h27.88v-38.77c0-3.59,.46-6.53,1.3-8.92h-28.38c-.53,3.34-.8,6.91-.8,10.7Z"/><path d="M208.26,68.94v38.77h27.88v-36.99c0-3.79-.27-7.35-.8-10.7h-28.38c.84,2.4,1.3,5.33,1.3,8.92Z"/><path d="M193.81,26.1c-17.94,0-30.54,6.97-37.1,19.75h74.19c-6.56-12.79-19.16-19.75-37.1-19.75Z"/><polygon points="277.26 107.71 302.83 107.71 313.95 81.36 313.95 107.71 341.32 107.71 341.32 60.02 297.43 60.02 277.26 107.71"/><polygon points="299.9 45.86 293.92 60.02 337.81 60.02 337.81 45.86 299.9 45.86"/><polygon points="341.32 28.13 310.91 28.13 303.41 45.86 341.32 45.86 341.32 28.13"/></g></g></g><rect class="d" x="256.35" y="184.07" width="72.8" height="5.83"/><rect class="b" x="295.36" y="187.58" width="20.96" height="8.46"/><rect class="d" x="92.58" y="112.72" width="72.8" height="5.83"/><rect class="b" x="131.59" y="116.23" width="20.96" height="8.46"/><rect class="d" x="13.04" y="170.48" width="39.92" height="3.2"/><rect class="b" x="34.43" y="172.41" width="11.49" height="4.64"/><rect class="d" x="355.95" y="74.41" width="25.75" height="5.58"/><rect class="b" x="371.08" y="77.05" width="25.75" height="5.58"/><g><rect class="d" x="151.65" width="133.81" height="3.64" transform="translate(437.1 3.64) rotate(180)"/><rect class="b" x="141.68" y="1.61" width="16.04" height="5.58" transform="translate(299.4 8.8) rotate(180)"/></g><g><rect class="b" x="9.97" y="80.77" width="114.57" height="3.64" transform="translate(134.51 165.19) rotate(180)"/><rect class="d" y="82.38" width="16.04" height="5.58" transform="translate(16.04 170.34) rotate(180)"/></g></g></g></g></svg>

<?xml version="1.0" encoding="utf-8"?>
<!-- Generator: Adobe Illustrator 26.1.0, SVG Export Plug-In . SVG Version: 6.00 Build 0)  -->
<svg version="1.1" id="Layer_1" xmlns="http://www.w3.org/2000/svg" xmlns:xlink="http://www.w3.org/1999/xlink" x="0px" y="0px"
	 viewBox="0 0 396.8 207.6" style="enable-background:new 0 0 396.8 207.6;" xml:space="preserve">
<style type="text/css">
	.st0{opacity:0.8;}
	.st1{fill:#FED105;}
	.st2{fill:#415DA5;}
</style>
<g>
	<g id="a">
		<g>
			<g>
				<g class="st0">
					<polygon class="st1" points="70.3,128.2 44.7,128.2 42.4,133.7 68,133.7 					"/>
					<polygon class="st1" points="90.1,148 61.9,148 66.1,138.1 40.5,138.1 36.3,148 36.3,173.4 90.1,173.4 90.1,205.5 117.4,205.5 
						117.4,173.4 130.6,173.4 130.6,148 117.4,148 117.4,138.1 90.1,138.1 					"/>
					<rect x="90.1" y="128.2" class="st1" width="27.4" height="5.5"/>
					<rect x="153.7" y="128.2" class="st1" width="27.9" height="5.5"/>
					<rect x="210.4" y="128.2" class="st1" width="27.9" height="5.5"/>
					<path class="st1" d="M210.4,164.7c0,12.7-5.6,17.5-14.4,17.5s-14.4-4.8-14.4-17.5v-26.6h-27.9V163c0,28.4,14.9,44.6,42.3,44.6
						s42.3-16.2,42.3-44.6v-24.8h-27.9V164.7z"/>
					<rect x="316.1" y="128.2" class="st1" width="27.4" height="5.5"/>
					<path class="st1" d="M92,138.1h27.4v-4.4H92V138.1z M155.6,138.1h27.9v-4.4h-27.9V138.1z M42.4,138.1H68l1.9-4.4H44.3
						C44.3,133.7,42.4,138.1,42.4,138.1z M318,133.7v4.4h27.4v-4.4H318z M268.5,138.1h25.6l1.9-4.4h-25.6L268.5,138.1z M212.4,138.1
						h27.9v-4.4h-27.9V138.1z"/>
					<polygon class="st1" points="316.1,148 288,148 292.2,138.1 266.6,138.1 262.4,148 262.4,173.4 316.1,173.4 316.1,205.5 
						343.5,205.5 343.5,173.4 356.7,173.4 356.7,148 343.5,148 343.5,138.1 316.1,138.1 					"/>
					<polygon class="st1" points="270.8,128.2 268.5,133.7 294,133.7 296.4,128.2 					"/>
					<path class="st1" d="M41.5,128.2H67l8.6-20.5H50.1L41.5,128.2L41.5,128.2z M86.8,128.2h27.4v-20.5H86.8V128.2z M150.4,128.2
						h27.9v-20.5h-27.9V128.2z M312.9,107.7v20.5h27.4v-20.5H312.9z M267.5,128.2h25.6l8.6-20.5h-25.6L267.5,128.2L267.5,128.2z
						 M207.2,128.2h27.9v-20.5h-27.9V128.2z"/>
					<g>
						<polygon class="st1" points="117.4,28.1 87,28.1 79.5,45.9 117.4,45.9 						"/>
						<polygon class="st1" points="76,45.9 70,60 113.9,60 113.9,45.9 						"/>
						<polygon class="st1" points="53.4,107.7 78.9,107.7 90.1,81.4 90.1,107.7 117.4,107.7 117.4,60 73.5,60 						"/>
						<path class="st1" d="M155.4,45.9c-2.1,4.1-3.6,8.9-4.4,14.2h28.4c2.1-6.1,6.8-8.6,13.1-8.6s11,2.5,13.1,8.6H234
							c-0.8-5.3-2.3-10-4.4-14.2H155.4L155.4,45.9z"/>
						<path class="st1" d="M153.7,70.7v37h27.9V68.9c0-3.6,0.5-6.5,1.3-8.9h-28.4C153.9,63.3,153.7,66.9,153.7,70.7z"/>
						<path class="st1" d="M210.4,68.9v38.8h27.9v-37c0-3.8-0.3-7.3-0.8-10.7h-28.4C210,62.4,210.4,65.3,210.4,68.9z"/>
						<path class="st1" d="M196,26.1c-17.9,0-30.5,7-37.1,19.7h74.2C226.5,33.1,213.9,26.1,196,26.1L196,26.1z"/>
						<polygon class="st1" points="279.5,107.7 305,107.7 316.1,81.4 316.1,107.7 343.5,107.7 343.5,60 299.6,60 						"/>
						<polygon class="st1" points="302.1,45.9 296.1,60 340,60 340,45.9 						"/>
						<polygon class="st1" points="343.5,28.1 313.1,28.1 305.6,45.9 343.5,45.9 						"/>
					</g>
				</g>
				<g class="st0">
					<polygon class="st2" points="62.6,128.2 37,128.2 34.7,133.7 60.3,133.7 					"/>
					<polygon class="st2" points="82.4,148 54.3,148 58.4,138.1 32.8,138.1 28.7,148 28.7,173.4 82.4,173.4 82.4,205.5 109.8,205.5 
						109.8,173.4 122.9,173.4 122.9,148 109.8,148 109.8,138.1 82.4,138.1 					"/>
					<rect x="82.4" y="128.2" class="st2" width="27.4" height="5.5"/>
					<rect x="146" y="128.2" class="st2" width="27.9" height="5.5"/>
					<rect x="202.8" y="128.2" class="st2" width="27.9" height="5.5"/>
					<path class="st2" d="M202.8,164.7c0,12.7-5.6,17.5-14.4,17.5s-14.4-4.8-14.4-17.5v-26.6H146V163c0,28.4,14.9,44.6,42.3,44.6
						s42.3-16.2,42.3-44.6v-24.8h-27.9V164.7z"/>
					<rect x="308.5" y="128.2" class="st2" width="27.4" height="5.5"/>
					<path class="st2" d="M84.3,138.1h27.4v-4.4H84.3V138.1z M147.9,138.1h27.9v-4.4h-27.9V138.1z M34.7,138.1h25.6l1.9-4.4H36.6
						L34.7,138.1z M310.4,133.7v4.4h27.4v-4.4H310.4z M260.8,138.1h25.6l1.9-4.4h-25.6L260.8,138.1z M204.7,138.1h27.9v-4.4h-27.9
						V138.1z"/>
					<polygon class="st2" points="308.5,148 280.3,148 284.5,138.1 258.9,138.1 254.8,148 254.8,173.4 308.5,173.4 308.5,205.5 
						335.9,205.5 335.9,173.4 349,173.4 349,148 335.9,148 335.9,138.1 308.5,138.1 					"/>
					<polygon class="st2" points="263.1,128.2 260.8,133.7 286.4,133.7 288.7,128.2 					"/>
					<path class="st2" d="M33.8,128.2h25.6l8.6-20.5H42.4L33.8,128.2L33.8,128.2z M79.1,128.2h27.4v-20.5H79.1V128.2z M142.8,128.2
						h27.9v-20.5h-27.9V128.2z M305.2,107.7v20.5h27.4v-20.5H305.2z M259.9,128.2h25.6l8.6-20.5h-25.6L259.9,128.2L259.9,128.2z
						 M199.5,128.2h27.9v-20.5h-27.9V128.2z"/>
					<g>
						<polygon class="st2" points="109.8,28.1 79.3,28.1 71.9,45.9 109.8,45.9 						"/>
						<polygon class="st2" points="68.3,45.9 62.4,60 106.3,60 106.3,45.9 						"/>
						<polygon class="st2" points="45.7,107.7 71.3,107.7 82.4,81.4 82.4,107.7 109.8,107.7 109.8,60 65.9,60 						"/>
						<path class="st2" d="M147.7,45.9c-2.1,4.1-3.6,8.9-4.4,14.2h28.4c2.1-6.1,6.8-8.6,13.1-8.6s11,2.5,13.1,8.6h28.4
							c-0.8-5.3-2.3-10-4.4-14.2H147.7L147.7,45.9z"/>
						<path class="st2" d="M146,70.7v37h27.9V68.9c0-3.6,0.5-6.5,1.3-8.9h-28.4C146.3,63.3,146,66.9,146,70.7z"/>
						<path class="st2" d="M202.8,68.9v38.8h27.9v-37c0-3.8-0.3-7.3-0.8-10.7h-28.4C202.3,62.4,202.8,65.3,202.8,68.9z"/>
						<path class="st2" d="M188.3,26.1c-17.9,0-30.5,7-37.1,19.7h74.2C218.9,33.1,206.3,26.1,188.3,26.1L188.3,26.1z"/>
						<polygon class="st2" points="271.8,107.7 297.4,107.7 308.5,81.4 308.5,107.7 335.9,107.7 335.9,60 292,60 						"/>
						<polygon class="st2" points="294.4,45.9 288.5,60 332.3,60 332.3,45.9 						"/>
						<polygon class="st2" points="335.9,28.1 305.4,28.1 297.9,45.9 335.9,45.9 						"/>
					</g>
				</g>
				<g class="st0">
					<polygon points="68.1,128.2 42.5,128.2 40.2,133.7 65.8,133.7 					"/>
					<polygon points="87.9,148 59.7,148 63.9,138.1 38.3,138.1 34.1,148 34.1,173.4 87.9,173.4 87.9,205.5 115.2,205.5 115.2,173.4 
						128.4,173.4 128.4,148 115.2,148 115.2,138.1 87.9,138.1 					"/>
					<rect x="87.9" y="128.2" width="27.4" height="5.5"/>
					<rect x="151.5" y="128.2" width="27.9" height="5.5"/>
					<rect x="208.3" y="128.2" width="27.9" height="5.5"/>
					<path d="M208.3,164.7c0,12.7-5.6,17.5-14.4,17.5s-14.4-4.8-14.4-17.5v-26.6h-27.9V163c0,28.4,14.9,44.6,42.3,44.6
						s42.3-16.2,42.3-44.6v-24.8h-27.9V164.7z"/>
					<rect x="314" y="128.2" width="27.4" height="5.5"/>
					<path d="M89.8,138.1h27.4v-4.4H89.8V138.1z M153.4,138.1h27.9v-4.4h-27.9V138.1z M40.2,138.1h25.6l1.9-4.4H42.1
						C42.1,133.7,40.2,138.1,40.2,138.1z M315.9,133.7v4.4h27.4v-4.4H315.9z M266.3,138.1h25.6l1.9-4.4h-25.6L266.3,138.1z
						 M210.2,138.1H238v-4.4h-27.9V138.1z"/>
					<polygon points="314,148 285.8,148 290,138.1 264.4,138.1 260.2,148 260.2,173.4 314,173.4 314,205.5 341.3,205.5 341.3,173.4 
						354.5,173.4 354.5,148 341.3,148 341.3,138.1 314,138.1 					"/>
					<polygon points="268.6,128.2 266.3,133.7 291.9,133.7 294.2,128.2 					"/>
					<path d="M38.9,129.3h25.6l8.6-20.5H47.6L38.9,129.3L38.9,129.3z M84.3,129.3h27.4v-20.5H84.3V129.3z M147.9,129.3h27.9v-20.5
						h-27.9V129.3z M310.4,108.9v20.5h27.4v-20.5H310.4z M265,129.3h25.6l8.6-20.5h-25.6L265,129.3L265,129.3z M204.7,129.3h27.9
						v-20.5h-27.9V129.3z"/>
					<g>
						<polygon points="115.2,28.1 84.8,28.1 77.3,45.9 115.2,45.9 						"/>
						<polygon points="73.8,45.9 67.8,60 111.7,60 111.7,45.9 						"/>
						<polygon points="51.2,107.7 76.7,107.7 87.9,81.4 87.9,107.7 115.2,107.7 115.2,60 71.3,60 						"/>
						<path d="M153.2,45.9c-2.1,4.1-3.6,8.9-4.4,14.2h28.4c2.1-6.1,6.8-8.6,13.1-8.6s11,2.5,13.1,8.6h28.4c-0.8-5.3-2.3-10-4.4-14.2
							H153.2L153.2,45.9z"/>
						<path d="M151.5,70.7v37h27.9V68.9c0-3.6,0.5-6.5,1.3-8.9h-28.4C151.8,63.3,151.5,66.9,151.5,70.7z"/>
						<path d="M208.3,68.9v38.8h27.9v-37c0-3.8-0.3-7.3-0.8-10.7H207C207.8,62.4,208.3,65.3,208.3,68.9z"/>
						<path d="M193.8,26.1c-17.9,0-30.5,7-37.1,19.7h74.2C224.3,33.1,211.7,26.1,193.8,26.1L193.8,26.1z"/>
						<polygon points="277.3,107.7 302.8,107.7 314,81.4 314,107.7 341.3,107.7 341.3,60 297.4,60 						"/>
						<polygon points="299.9,45.9 293.9,60 337.8,60 337.8,45.9 						"/>
						<polygon points="341.3,28.1 310.9,28.1 303.4,45.9 341.3,45.9 						"/>
					</g>
				</g>
			</g>
			<rect x="256.4" y="184.1" class="st2" width="72.8" height="5.8"/>
			<rect x="295.4" y="187.6" class="st1" width="21" height="8.5"/>
			<rect x="92.6" y="112.7" class="st2" width="72.8" height="5.8"/>
			<rect x="131.6" y="116.2" class="st1" width="21" height="8.5"/>
			<rect x="13" y="170.5" class="st2" width="39.9" height="3.2"/>
			<rect x="34.4" y="172.4" class="st1" width="11.5" height="4.6"/>
			<rect x="356" y="74.4" class="st2" width="25.8" height="5.6"/>
			<rect x="371.1" y="77" class="st1" width="25.8" height="5.6"/>
			<g>
				<rect x="151.6" y="0" class="st2" width="133.8" height="3.6"/>
				<rect x="141.7" y="1.6" class="st1" width="16" height="5.6"/>
			</g>
			<g>
				<rect x="10" y="80.8" class="st1" width="114.6" height="3.6"/>
				<rect y="82.4" class="st2" width="16" height="5.6"/>
			</g>
		</g>
	</g>
</g>
</svg>
